X:152
T: SO TRETN WIR NUN HERFUERE
N: E1264
O: Europa, Mitteleuropa, Deutschland, Hildburghausen
R: Ansinge -, Brauchtums - Lied, Kirchen - Fest, Kirmes
M: 2/4
L: 1/16
K: G
D2 | G3AB2c2 | d4B2z2
d2d2d2d2 | d2cBA2
AB | c2c2B2B2 | A4G2z2
G3AB2A2 | GAABd2
d2 | e2d2c2B2 | A2A2G2

